X:115
T:Fa La La. LIT.115
M:2/4
Q:1/4=120
L:1/8
B:Wm. Litten MS, 1802
Z:Village Music Project 2017 Anne Wride
K:A
A | ee cc | AA A/B/c | dd cA | G/A/B/c/ BB |
ee cc |  AA A/B/c | dd cA | B/A/B/c/ A :|
|: e | Bc de | Bc de | Bc de | ec  Hee | e2 ef/d/ |
c2 cd/B/ | AA A/B/c | dd cA | B/A/B/c/ A :|


